X:1
T:The Gambrelli Theme
T:The Gambrelli Theme
T:(from the film "Son of the Pink Panther")
T:comp. by Henry Mancini arr. by Alexander Dockins 
T:1993
T:1993
T:1993
T:1993
T:1993
C:Henry Mancini
Z:1993
%%score { 1 | 2 }
L:1/8
Q:3/8=80
M:4/4
K:C
V:1 treble nm="Piano" snm="Pno."
V:2 bass 
V:1
 z/ z/ z [A,CE]/ z/ z/ [^A,^CF]/ [=A,=CE]/ z/ z z2 | %1
 z/ z/ z [A,CE]/ z/ z/ [^A,^CF]/ [=A,=CE]/ z/ z z2 | %2
 e2 [A,CE]/ z/ z/ [^A,^CF]/ (3[=A,=CE] z f (3e z ^d | %3
 e2 [A,CE]/ z/ z/ [^A,^CF]/ (3[=A,=CE] z f (3e z _e | %4
 (3d z _d (3[A,CEc] z B (3_B z A (3[A,CE_A] z G | %5
 _G2 [A,CE]/ z/ z/ [^A,_DF]/ (3[=A,CE] z =G (3^G z =G | %6
 _G2 [A,CE]/ z/ z/ [^A,^CF]/ (3[=A,=CE] z =G (3^G z A | %7
 (3^A z =A (3[A,CE^G] z =G _G2 [A,CE]/ z/ z | z2 [A,CE]/ z/ z z2 [A,CE]/ z/ z | %9
 z/ z/ z [G,_B,D]/ z/ z/ [_A,=B,_E]/ [G,_B,D]/ z/ z z2 | %10
 z/ z/ z [G,_B,D]/ z/ z/ [_A,=B,_E]/ [G,_B,D]/ z/ z z2 | %11
 [_Bd]2 [G,_B,D]/ z/ z/ [_A,=B,_E]/ (3[G,_B,D] z [=B_e] (3[^Ad] z [=A_d] | %12
 [_Bd]2 [G,_B,D]/ z/ z/ [_A,=B,_E]/ (3[G,_B,D] z [=B_e] (3[^Ad] z [=A_d] | %13
 (3[_Ac] z [GB] (3[G,_B,D_G_B] z [F=A] (3[E_A] z [_E=G] (3[G,B,D_G] z [_DF] | %14
 [CE]2 [G,_B,D]/ z/ z/ [_A,=B,_E]/ (3[G,_B,D] z [_DF] (3[=D_G] z [_DF] | %15
 [CE]2 [G,_B,D]/ z/ z/ [_A,=B,_E]/ (3[G,_B,D] z [^CF] (3[D_G] z [^D=G] | %16
 (3[E_A] z [^DG] (3[G,_B,=D_G] z [_DF] [CE]2 [G,B,=D]/ z/ z | z2 [G,_B,D]/ z/ z z2 [G,B,D]/ z/ z | %18
 F2 [E,G,^CE]/ z/ z _B2 [E,G,_DA]/ z/ z | (3F z E (3[E,G,^C^D] z E (3^A z =A (3[E,G,_D_A] z =A | %20
 ^A2 [F,A,D=A]/ z/ z e2 [F,A,Dd]/ z/ z | (3^A z =A (3[F,A,D^G] z A e2 [F,A,Dd]/ z/ z | %22
 z2 (3[Dd] z [Ee] (3[Ff] z [Ee] (3[Dd] z [Ee] | [Ff]/ z/ z z2 z4 | %24
 z2 (3[Dd] z [Ee] (3[Ff] z [Ee] (3[Dd] z [Ee] | [Ff]/ z/ z!ff! z2 z4 | %26
!mf! G2 [G,_B,Ee]/ z/ z e2 [G,B,EG]/ z/ z | F2 [F,A,Dd]/ z/ z d2 [F,A,DF]/ z/ z | %28
 G2 [G,_B,Ee]/ z/ z e2 [G,B,EG]/ z/ z | F2 [F,A,Dd]/ z/ z d2 [F,A,DF]/ z/ z | %30
 (3[E,G,_DA] z _A (3=A z ^A (3[E,G,D=A] z G (3F z E | %31
[M:5/4] (3[F,A,D] z _D (3=D z _D (3[F,A,=D] z _E =E2!sfz! [_A,B,E]2 | %32
[M:4/4] !///![ee']2 [E,A,C]/ z/ z/ [F,^A,^C]/ (3[E,=A,=C] z [ff'] (3[ee'] z [_e_e'] | %33
 !///![ee']2 [E,A,C]/ z/ z/ [F,^A,^C]/ (3[E,=A,=C] z [ff'] (3[ee'] z [_e_e'] | %34
 (3[dd'] z [_d_d'] (3[A,CEcc'] z [Bb] (3[_B_b] z [Aa] (3[A,CE_A_a] z [Gg] | %35
 !///![_G_g]2 [A,CE]/ z/ z/ [^A,^CF]/ (3[=A,=CE] z [=G=g] (3[^G^g] z [=G=g] | %36
 !///![_G_g]2 [A,CE]/ z/ z/ [^A,^CF]/ (3[=A,=CE] z [=G=g] (3[^G^g] z [Aa] | %37
 (3[^A^a] z [=A=a] (3[A,CE_A_a] z [Gg] !///![^F_g]2 [A,CE] z | z2 [A,CE]2 z2 [A,CE]2 | %39
 d4 (3z z ^d (3=d z ^c | d4 (3z z ^d (3=d z _d | (3c z B (3_B z A (3_A z G (3_G z F | %42
 E4 (3z z F (3_G z F | E4 (3z z F (3_G z =G | (3_A z G (3^F z =F E2!mf! (3G,[G,_B,][=B,D] | %45
 (3[CE] z [B,_E] (3[_B,D] z [A,_D] (3[_A,C] z [G,=B,] (3[A,C] z [=A,^C] | %46
[M:6/4] (3[_B,D] z [=B,^D] (3[_B,=D] z [A,_D] (3[^G,C] z [=G,=B,] (3[^F,_B,] z [=F,A,] [E,_A,]4 | %47
[M:4/4] F2 [E,G,^CE]/ z/ z _B2 [E,G,_DA]/ z/ z | %48
 (3F z E (3[E,G,^C^D] z E (3^A z =A (3[E,G,_D_A] z =A | ^A2 [F,A,D=A]/ z/ z e2 [F,A,Dd]/ z/ z | %50
 (3^A z =A (3[F,A,D^G] z A e2 [F,A,Dd]/ z/ z | %51
!mp! z2 (3[Ddf] z [Eeg] (3[Ff_a] z [Eeg] (3[Ddf] z [Eeg] | %52
 [Ffa]/ z/ z!ff! (3^G, z A, F,2 D,/4 z/4 z/ z | %53
!mp! z2 (3[Ddf] z [Eeg] (3[Ff_a] z [Eeg] (3[Ddf] z [Eegc'] | %54
 [Ffad']/ z/ z!ff! (3^G, z A, F,2 D,/ z/ z |!mf! [Gg]2 [ee']/ z/ z !///![ee']2 [Gg]/ z/ z | %56
 [Ff]2 [dd']/ z/ z !///![dd']2 [Ff]/ z/ z | [Gg]2 [ee']/ z/ z/ [ff']/ !///![ee']2 [Gg]/ z/ z | %58
 [Ff]2 [dd']/ z/ z/ [ee']/ !///![dd']2 [Ff]/ z/ z | %59
 (3[Aa] z [_A_a] (3[=A=a] z [_B_b] [Aa]/ z/ z!ff! z2 | %60
 (3[Aa] z [_A_a] (3[=A=a] z [_B_b] [Aa]/ z/ z!ff! z2 | %61
 (3[Aa] z [_A_a] (3[=A=a] z [_B_b]!sfz! (3[Aa] z [Gg] (3[Ff] z [Ee] | [Dd]2 z2 z4 | z8 | %64
!<(! (3[Aa] z [_A_a] (3[=A=a] z [_B_b] (3[Aa] z [Gg=b] (3[Ffc'] z [Ee^c'] | %65
 [Ddad']2 z2 [A,DFAd]2 z2!<)!!ff! |] %66
V:2
!mp! A,,6 E,,2 | A,,,6 E,,2 | A,,6 E,,2 | A,,,6 E,,2 | A,,6 E,,2 | A,,6 E,,2 | A,,,6 E,,2 | %7
 A,,6 E,,2 | A,,,4 A,,4 |!mf! G,,6 D,,2 | G,,,6 D,,2 | G,,6 D,,2 | G,,,6 D,,2 | G,,4 D,,4 | %14
 G,,6 D,,2 | G,,,6 D,,2 | G,,4 D,,4 | G,,,4 G,,4 | A,,4 E,,4 | A,,,4 A,,4 | D,,4 A,,,4 | %21
 D,,4 D,,4 | [_D,E,^A,]/ z/ z z2 z2 z2 | [D,F,A,]/ z/ z!ff! (3^G,, z A,, F,,2 D,,/ z/ z | %24
!mf! [_D,E,^A,]/ z/ z z2 z2 z2 | [D,F,A,]/ z/ z (3^G,, z A,, F,,2 D,,/ z/ z | G,,,4 G,,4 | %27
 D,,4 D,,4 | G,,,4 G,,4 | D,,4 D,,4 | G,,,/ z/ z z2 G,,/ z/ z z2 | %31
[M:5/4] D,,/ z2 z z/ D,,/ z/ z z2 (3E,,_G,,_A,, |[M:4/4] [A,,,A,,]/ z/ z z2 z2 (3E,,_G,,_A,, | %33
 [A,,,A,,]/ z/ z z2 z2 (3E,,_G,,_A,, | [A,,,A,,]/ z/ z z2 E,,/ z/ z z2 | %35
 [A,,,A,,]/ z/ z z2 z2 (3E,,_G,,_A,, | [A,,,A,,]/ z/ z z2 z2 (3E,,_G,,_A,, | %37
 [A,,,A,,]/ z/ z z2 E,,/ z/ z z2 | [A,,,A,,]/ z/ z z2 A,,,/ z/ z z2 | %39
 G,,,/ z/ z (3[G,^A,][^G,C][=A,^C] [^A,D]/ z/ z D,,/ z/ z | %40
 G,,,/ z/ z (3[G,^A,][^G,C][=A,^C] [^A,D]/ z/ z D,,/ z/ z | %41
 G,,,/ z/ z [G,_B,D]/ z/ z D,,/ z/ z [G,B,D]/ z/ z | %42
 G,,,/ z/ z (3[G,^A,][^G,C][=A,^C] [^A,D]/ z/ z D,,/ z/ z | %43
 G,,/ z/ z (3[G,^A,][^G,C][=A,^C] [^A,D]/ z/ z D,,/ z/ z | %44
 G,,,/ z/ z [G,_B,D]/ z/ z G,,/ z/ z z/ z/ z | _A,,,2 =A,,,2 ^A,,,2 B,,,2 | %46
[M:6/4] C,,2 ^C,,2 D,,2 _E,,2 =E,,4 |[M:4/4] A,,4 E,,4 | A,,,4 A,,4 | D,,4 A,,,4 | D,,4 D,,4 | %51
 D,2 B,,/ z/ z ^G,,/ z/ z F,,2 | D,,/ z/ z (3^G,, z A,, F,,2 D,,/ z/ z | %53
 D,2 B,,/ z/ z ^G,,/ z/ z F,,2 | D,,/ z/ z (3^G,, z A,, F,,2 D,,/ z/ z | %55
 G,,2 [G,^A,E]/ z/ z G,,2 [G,A,E]/4 z/4 z/ z | D,,2 [F,A,D]/ z/ z D,,2 [F,A,D]/ z/ z | %57
 G,,2 [G,^A,E]/ z/ z G,,2 [G,A,E]/ z/ z | D,,2 [F,A,D]/ z/ z D,,2 [F,A,D]/ z/ z | %59
 z2 z2 z2 [^C,E,G,E]/ z/ z | z2 z2 z2 [^C,E,G,E]/ z/ z | A,,,4 A,,2 ^C,2 | D,2 C,2 _B,,2 A,,2 | %63
 _B,,2 A,,2 G,,2 F,,2 | A,,2 G,,2 F,,2 E,,2 | D,,2 z2 [D,,,D,,]2 z2 |] %66

